.img/LOCO.svg

<svg width="92" height="23" viewBox="0 0 92 23" fill="none" xmlns="http://www.w3.org/2000/svg">
<path d="M0.418749 22H14.7888V19.39H3.41875V0.999999H0.418749V22ZM29.4304 22.24C35.8204 22.24 40.5604 17.68 40.5604 11.5C40.5604 5.32 35.8204 0.76 29.4304 0.76C22.9804 0.76 18.2404 5.35 18.2404 11.5C18.2404 17.65 22.9804 22.24 29.4304 22.24ZM29.4304 19.57C24.7204 19.57 21.2404 16.15 21.2404 11.5C21.2404 6.85 24.7204 3.43 29.4304 3.43C34.0804 3.43 37.5604 6.85 37.5604 11.5C37.5604 16.15 34.0804 19.57 29.4304 19.57ZM56.6357 22.24C59.9057 22.24 62.7257 21.1 64.6457 18.94L62.6957 17.05C61.0757 18.76 59.0957 19.57 56.7857 19.57C52.0457 19.57 48.5357 16.15 48.5357 11.5C48.5357 6.85 52.0457 3.43 56.7857 3.43C59.0957 3.43 61.0757 4.21 62.6957 5.92L64.6457 4.03C62.7257 1.87 59.9057 0.76 56.6657 0.76C50.2757 0.76 45.5357 5.29 45.5357 11.5C45.5357 17.71 50.2757 22.24 56.6357 22.24ZM80.0659 22.24C86.4559 22.24 91.1959 17.68 91.1959 11.5C91.1959 5.32 86.4559 0.76 80.0659 0.76C73.6159 0.76 68.8759 5.35 68.8759 11.5C68.8759 17.65 73.6159 22.24 80.0659 22.24ZM80.0659 19.57C75.3559 19.57 71.8759 16.15 71.8759 11.5C71.8759 6.85 75.3559 3.43 80.0659 3.43C84.7159 3.43 88.1959 6.85 88.1959 11.5C88.1959 16.15 84.7159 19.57 80.0659 19.57Z" fill="white"/>
</svg>

<svg width="92" height="23" fill="none" xmlns="http://www.w3.org/2000/svg"><path d="M.419 22h14.37v-2.61H3.419V1h-3v21zm29.011.24c6.39 0 11.13-4.56 11.13-10.74C40.56 5.32 35.82.76 29.43.76c-6.45 0-11.19 4.59-11.19 10.74s4.74 10.74 11.19 10.74zm0-2.67c-4.71 0-8.19-3.42-8.19-8.07s3.48-8.07 8.19-8.07c4.65 0 8.13 3.42 8.13 8.07s-3.48 8.07-8.13 8.07zm27.206 2.67c3.27 0 6.09-1.14 8.01-3.3l-1.95-1.89c-1.62 1.71-3.6 2.52-5.91 2.52-4.74 0-8.25-3.42-8.25-8.07s3.51-8.07 8.25-8.07c2.31 0 4.29.78 5.91 2.49l1.95-1.89c-1.92-2.16-4.74-3.27-7.98-3.27-6.39 0-11.13 4.53-11.13 10.74s4.74 10.74 11.1 10.74zm23.43 0c6.39 0 11.13-4.56 11.13-10.74 0-6.18-4.74-10.74-11.13-10.74-6.45 0-11.19 4.59-11.19 10.74s4.74 10.74 11.19 10.74zm0-2.67c-4.71 0-8.19-3.42-8.19-8.07s3.48-8.07 8.19-8.07c4.65 0 8.13 3.42 8.13 8.07s-3.48 8.07-8.13 8.07z" fill="#fff"/></svg>
